( Made using CamBam - http://www.cambam.co.uk )
( MusicalThingPocket 7/27/2014 7:54:42 PM )
( T12 : 2.55 )
G21 G90 G64 G40
G0 Z3.0
( T12 : 2.55 )
T12 M6
( Pocket1 )
G17
M3 S1000
G0 X2.7911 Y4.7101
G0 Z0.5
G1 F25.0 Z0.0
G2 F100.0 X5.475 Y0.0 Z-1.0 I-2.7911 J-4.7101
G2 X-2.7375 Y-4.7415 I-5.475 J0.0
G2 Y4.7415 I2.7375 J4.7415
G2 X5.475 Y0.0 I2.7375 J-4.7415
G0 Z3.0
G0 X2.7911 Y4.7101
G0 Z-0.5
G1 F25.0 Z-1.0
G2 F100.0 X5.475 Y0.0 Z-2.0 I-2.7911 J-4.7101
G2 X-2.7375 Y-4.7415 I-5.475 J0.0
G2 Y4.7415 I2.7375 J4.7415
G2 X5.475 Y0.0 I2.7375 J-4.7415
G0 Z3.0
G0 X2.7911 Y4.7101
G0 Z-1.5
G1 F25.0 Z-2.0
G2 F100.0 X5.475 Y0.0 Z-3.0 I-2.7911 J-4.7101
G2 X-2.7375 Y-4.7415 I-5.475 J0.0
G2 Y4.7415 I2.7375 J4.7415
G2 X5.475 Y0.0 I2.7375 J-4.7415
G0 Z3.0
G0 X2.7911 Y4.7101
G0 Z-2.5
G1 F25.0 Z-3.0
G2 F100.0 X5.475 Y0.0 Z-4.0 I-2.7911 J-4.7101
G2 X-2.7375 Y-4.7415 I-5.475 J0.0
G2 Y4.7415 I2.7375 J4.7415
G2 X5.475 Y0.0 I2.7375 J-4.7415
G0 Z3.0
G0 X2.7911 Y4.7101
G0 Z-3.5
G1 F25.0 Z-4.0
G2 F100.0 X5.475 Y0.0 Z-5.0 I-2.7911 J-4.7101
G2 X-2.7375 Y-4.7415 I-5.475 J0.0
G2 Y4.7415 I2.7375 J4.7415
G2 X5.475 Y0.0 I2.7375 J-4.7415
G0 Z3.0
G0 X2.7911 Y4.7101
G0 Z-4.5
G1 F25.0 Z-5.0
G2 F100.0 X5.475 Y0.0 Z-6.0 I-2.7911 J-4.7101
G2 X-2.7375 Y-4.7415 I-5.475 J0.0
G2 Y4.7415 I2.7375 J4.7415
G2 X5.475 Y0.0 I2.7375 J-4.7415
G0 Z3.0
G0 X2.7911 Y4.7101
G0 Z-5.5
G1 F25.0 Z-6.0
G2 F100.0 X5.475 Y0.0 Z-7.0 I-2.7911 J-4.7101
G2 X-2.7375 Y-4.7415 I-5.475 J0.0
G2 Y4.7415 I2.7375 J4.7415
G2 X5.475 Y0.0 I2.7375 J-4.7415
G0 Z3.0
G0 X2.7911 Y4.7101
G0 Z-6.5
G1 F25.0 Z-7.0
G2 F100.0 X5.475 Y0.0 Z-8.0 I-2.7911 J-4.7101
G2 X-2.7375 Y-4.7415 I-5.475 J0.0
G2 Y4.7415 I2.7375 J4.7415
G2 X5.475 Y0.0 I2.7375 J-4.7415
G0 Z3.0
G0 X4.7569 Y2.7106
G0 Z-7.5
G1 F25.0 Z-8.0
G2 F100.0 X5.475 Y0.0 Z-8.5 I-4.7569 J-2.7106
G2 X-2.7375 Y-4.7415 I-5.475 J0.0
G2 Y4.7415 I2.7375 J4.7415
G2 X5.475 Y0.0 I2.7375 J-4.7415
G0 Z3.0
G0 X-0.5247 Y-3.2327
G0 Z0.5
G1 F25.0 Z0.0
G3 F100.0 X3.275 Y0.0 Z-1.0 I0.5247 J3.2327
G3 X-1.6375 Y2.8362 I-3.275 J0.0
G3 Y-2.8362 I1.6375 J-2.8362
G3 X3.275 Y0.0 I1.6375 J2.8362
G0 Z3.0
G0 X-0.5247 Y-3.2327
G0 Z-0.5
G1 F25.0 Z-1.0
G3 F100.0 X3.275 Y0.0 Z-2.0 I0.5247 J3.2327
G3 X-1.6375 Y2.8362 I-3.275 J0.0
G3 Y-2.8362 I1.6375 J-2.8362
G3 X3.275 Y0.0 I1.6375 J2.8362
G0 Z3.0
G0 X-0.5247 Y-3.2327
G0 Z-1.5
G1 F25.0 Z-2.0
G3 F100.0 X3.275 Y0.0 Z-3.0 I0.5247 J3.2327
G3 X-1.6375 Y2.8362 I-3.275 J0.0
G3 Y-2.8362 I1.6375 J-2.8362
G3 X3.275 Y0.0 I1.6375 J2.8362
G0 Z3.0
G0 X-0.5247 Y-3.2327
G0 Z-2.5
G1 F25.0 Z-3.0
G3 F100.0 X3.275 Y0.0 Z-4.0 I0.5247 J3.2327
G3 X-1.6375 Y2.8362 I-3.275 J0.0
G3 Y-2.8362 I1.6375 J-2.8362
G3 X3.275 Y0.0 I1.6375 J2.8362
G0 Z3.0
G0 X-0.5247 Y-3.2327
G0 Z-3.5
G1 F25.0 Z-4.0
G3 F100.0 X3.275 Y0.0 Z-5.0 I0.5247 J3.2327
G3 X-1.6375 Y2.8362 I-3.275 J0.0
G3 Y-2.8362 I1.6375 J-2.8362
G3 X3.275 Y0.0 I1.6375 J2.8362
G0 Z3.0
G0 X-0.5247 Y-3.2327
G0 Z-4.5
G1 F25.0 Z-5.0
G3 F100.0 X3.275 Y0.0 Z-6.0 I0.5247 J3.2327
G3 X-1.6375 Y2.8362 I-3.275 J0.0
G3 Y-2.8362 I1.6375 J-2.8362
G3 X3.275 Y0.0 I1.6375 J2.8362
G0 Z3.0
G0 X-0.5247 Y-3.2327
G0 Z-5.5
G1 F25.0 Z-6.0
G3 F100.0 X3.275 Y0.0 Z-7.0 I0.5247 J3.2327
G3 X-1.6375 Y2.8362 I-3.275 J0.0
G3 Y-2.8362 I1.6375 J-2.8362
G3 X3.275 Y0.0 I1.6375 J2.8362
G0 Z3.0
G0 X-0.5247 Y-3.2327
G0 Z-6.5
G1 F25.0 Z-7.0
G3 F100.0 X3.275 Y0.0 Z-8.0 I0.5247 J3.2327
G3 X-1.6375 Y2.8362 I-3.275 J0.0
G3 Y-2.8362 I1.6375 J-2.8362
G3 X3.275 Y0.0 I1.6375 J2.8362
G0 Z3.0
G0 X2.1222 Y-2.4944
G0 Z-7.5
G1 F25.0 Z-8.0
G3 F100.0 X3.275 Y0.0 Z-8.5 I-2.1222 J2.4944
G3 X-1.6375 Y2.8362 I-3.275 J0.0
G3 Y-2.8362 I1.6375 J-2.8362
G3 X3.275 Y0.0 I1.6375 J2.8362
G0 Z3.0
M5
M30
